X: 9642
T: Day In Strabane
R: jig
M: 6/8
K: Emajor
[e|:BGE FGA|GEC B,CD|EE/E/E EF/G/B|cBG F2 e|
BGE FGA|GEC B,CD|EE/E/E EF/G/B|1 AFD E2 e:|2 AFD EF/G/B||
|:ee/e/e eBG BB/B/B Bcd|edc BAG|BAG F2 e|
BGE FGA|GEC B,CD|EE/E/E EF/G/B|1 AFD EF/G/B:|2 AFD E2 e||

